!!!COM: Victor Masse/
!!!CNT: Francais
!!!TXO: Francais
!!!OTL: Le sonneur de Cornouaille
!!!LYR: Michel Carre/
!!!OPR: Chants Bretons
!!!ENC: Jacob Pegg
!!!YOR: Romantic French Song 1830-1870 -David Tunley, ed.,
!!!YOR: New York: Garland Publishing, Inc., 1995, Vol. 4
!!!ODT: 1853/
!!NB: Vocal melody and text only encoded.
!!NB: First instance of melodic material only encoded.
**kern	**silbe
*clef G2	*
*k[b-]	*
*M6/8	*
=3	=3
{4d	{Vous
8e	qui
8f	pas-
8g	-sez
8a	par
=4	=4
4b-	la
8d	bru-
(4g#	-ye\-
8a)}	-re}
=5	=5
{4d	{A
8e	l'heure
8f	ou\
8g	chan-
8a	-te
=6	=6
4b-	le
8d	hi-
[4.a	-bou,
=7	=7
4.a_	|
4a]}	|}
8r	.
=8	=8
{4d	{En
8e	ten-
8f	-dez~
8g	~vous
8a	dans
=9	=9
4b-	la
8d	clai-
(4g#	-rie\-
8a)}	-re,}
=10	=10
{4d	{Comme
8e	un
8f	son
8g	loin-
8a	-tain
=11	=11
4cc	de
8f	bi-
[4.dd	-niou?
=12	=12
4.dd_	|
4dd]}	|}
8r	.
=13	=13
{4e	{Voy-
8f	-ez~
8g	~vous,
8f	par-
8e	-mi
=14	=14
4f	les
8g	brous-
(8b-	-sail-
8a)}	-les}
{8dd	{Sau-
=15	=15
4e	-ter
8dd	ces
4e	pe-
8dd	-tits
=16	=16
4e	nains
(gq	me/-
8f)	|
(4.e	-chants?
=17	=17
2.A)}	|}
=18	=18
*M2/4	*
*k[f#c#]	*
{4a	{C'est
8a	le
8a	son-
=19	=19
8a	-neur
8a	de
8a	Cor-
8a	-nou-
=20	=20
2a	-ail-
=21	=21
4a}	-le}
4r	.
=22	=22
{4dd	{Qui
8dd	fait
8dd	dan-
=23	=23
8dd	-ser
8dd	les
8dd	Ko-
8dd	-ri-
=24	=24
[2d	-gans!
=25	=25
4d]}	|}
4r	.
=26	=26
{(16a	{ah!
16f#	|
16d	|
16e	|
4A)	|
=27	=27
(16a	|
16f#	|
16d	|
16e	|
4A)}	|}
=28	=28
{(16b	{ah!
16g	|
16a	|
16f#	|
16g	|
16e	|
16f#	|
16d)	|
=29	=29
(8e	|
16A)	|
16r	.
4A}	|}
=30	=30
{(16dd	{ah!
16b	|
16cc#	|
16a	|
4d)	|
=31	=31
(16dd	|
16b	|
16cc#	|
16a	|
4d)}	|}
=32	=32
{(16ee	{ah!
16cc#	|
16dd	|
16b	|
16cc#	|
16a	|
16b	|
16g)	|
=33	=33
(8a	|
16f#)	|
16r	.
[4f#	|
=34	=34
8f#]}	|}
{8d	{C'est
8d	le
8d	son-
=35	=35
8d	-neur
8d	de
8d	Cor-
8d	-nou-
=36	=36
2d	-ail-
=37	=37
8d	-le
8d	qui
8f#	fait
8a	dan-
=38	=38
8g	-ser
8b	les
8dd	Ko-
8ee	-ri-
=39	=39
*M6/8	*
[2.dd	-gans!
=40	=40
2.dd_	|
=41	=41
4dd]}	|}
8r	.
4r	.
8r	.
*-	*-
